X:1
T:Title
%%score { 1 | ( 2 3 ) } 4
L:1/8
Q:1/4=60
M:9/8
K:F
V:1 treble nm="Grand Piano, Piano"
V:2 bass 
V:3 bass 
V:4 treble nm="Clarinet, Clarinet"
V:1
 F F2 GFE- E3 |[M:7/8] EEE D E3 |[M:9/8] E F2 E2 D- D3 | DDD E3 E E2 |[M:6/8] [CF][CF][DG]- [DG]3 | %5
[M:11/8] [DG][DG][DG][DG][DF]EEF- F3 |[M:7/8] FFE D E3 |[M:10/8] EEED E2 E F3 | %8
[M:9/8] F F2 E2 D- D3 |[M:10/8] DDEE[CF][CF] [DG]4 | %10
[M:12/8] [DG][DG][DG] [DG][DG][DF] [CE]2 [F,CF]- [F,CF]3 |[M:8/8] FE D2 DD E2 | %12
[M:10/8] EE E2 [CF][CF] [DG]4 |[M:12/8] [DG][DG][DF] E E2 E2 [CF]- [CF]3 |] %14
V:2
 F,3 [E,G,][D,A,][C,C]- [C,C]3 |[M:7/8] [C,C][C,C][C,C] [D,A,] [C,C]3 |[M:9/8] C3 z3 z3 | %3
 [D,A,][D,A,][D,A,] [C,C]3 [C,C] [C,C]2 |[M:6/8] A,,A,,G,,- G,,3 |[M:11/8] z z z z z2 C-C- C3 | %6
[M:7/8] F,F,[E,G,] [D,A,] [C,C]3 |[M:10/8] z2 z4 C4 |[M:9/8] z C2- C2 z z3 | %9
[M:10/8] [D,A,][D,A,][C,C][C,C]A,,A,, G,,4 | %10
[M:12/8] [G,,G,][G,,G,][G,,G,] [G,,G,][G,,G,][G,,G,] C,2 F,,- F,,3 | %11
[M:8/8] F,[E,G,] [D,A,]2 [D,A,][D,A,] [C,C]2 |[M:10/8] [C,C][C,C] [C,C]2 A,,A,, G,,4 | %13
[M:12/8] [G,,G,][G,,G,][G,,G,] [C,C] [C,C]2 [C,C]2 [F,,F,]- [F,,F,]3 |] %14
V:3
 x9 |[M:7/8] x7 |[M:9/8] C, F,2 [C,C]2 [D,A,]- [D,A,]3 | x9 |[M:6/8] x6 | %5
[M:11/8] [G,,G,][G,,G,][G,,G,][G,,G,][G,,G,][C,C]C,[F,,F,]- [F,,F,]3 |[M:7/8] x7 | %7
[M:10/8] [C,C][C,C][C,C][D,A,] [C,C]2 C, F,3 |[M:9/8] [F,C] F,2 C,2 [D,A,]- [D,A,]3 |[M:10/8] x10 | %10
[M:12/8] x12 |[M:8/8] x8 |[M:10/8] x10 |[M:12/8] x12 |] %14
V:4
 A A2 GFG- G3 |[M:7/8] GGG F G3 |[M:9/8] G A2 G2 F- F3 | FFF G3 G G2 |[M:6/8] AAB- B3 | %5
[M:11/8] BBBBBGGA- A3 |[M:7/8] AAG F G3 |[M:10/8] GGGF G2 G A3 |[M:9/8] A A2 G2 F- F3 | %9
[M:10/8] FFGGAA B4 |[M:12/8] BBB BBB G2 A- A3 |[M:8/8] AG F2 FF G2 |[M:10/8] GG G2 AA B4 | %13
[M:12/8] BBB G G2 G2 A- A3 |] %14

